!!! OTL: Berkowitz626
!!! Chapter: 1
!!! Section: V
!!! Page: 159
!!! Mode: 
!!! Encoder: AR
**kern
*staff1
=1-
!!pagebreak:original
*clefC3
*k[]
*C:
*M6/8
4c\
8a\
4cc#\
8a\
=2
4cn\
8a\
4.cc#\
=3
4b-\
8cn\
4.b-\
=4
8b-\L
8a-\
8e\J
4cc\
8b-\
=5
4an\
8B-/
4a\
8f#\
=6
4a\
8B-/
4.g\
=7
8e-\L
8d-\
8Bn\J
8A\L
8dn\
8g\J
=8
!!linebreak:original
8f#\L
8g\
8f#\J
4.e-\
=9
4fn\
8g\
4A/
8g\
=10
4e\
8f#\
4.d\
=11
8A\L
8c\
8g#\J
4b\
8a\
=12
!!linebreak:original
8A\L
8c#\
8b-\J
4dd\
8ccn\
=13
4d-\
8cc\
4a\
8cc\
=14
4.c#\
4.e\
=15
[4.cn\
4c\]
8r
==
*-
